Sources/FrostedUI/Resources/Icons.xcassets/telephone12.imageset/telephone-12.svg

<svg width="12" height="12" viewBox="0 0 12 12" fill="none" xmlns="http://www.w3.org/2000/svg" data-fui-icon="true">
  <path
    d="M7.75 0C8.7165 1.711e-07 9.5 0.783502 9.5 1.75V3.34473C9.5 4.24379 8.81843 4.99648 7.92383 5.08594L7.02441 5.17578C7.00937 5.44036 7 5.71529 7 6C7 6.28436 7.00941 6.55896 7.02441 6.82324L7.92383 6.91406C8.81843 7.00352 9.5 7.75621 9.5 8.65527V10.25C9.5 11.2165 8.7165 12 7.75 12H6.04199C5.57311 12 4.97011 11.8744 4.53711 11.3857C3.8796 10.6435 3 9.06567 3 6C3 2.93433 3.8796 1.35649 4.53711 0.614258C4.97011 0.125576 5.57311 -1.4642e-08 6.04199 0H7.75ZM6.04199 1.5C5.80156 1.5 5.69796 1.56589 5.66016 1.6084C5.28439 2.03249 4.5 3.23758 4.5 6C4.5 8.76242 5.28439 9.96751 5.66016 10.3916C5.69796 10.4341 5.80155 10.5 6.04199 10.5H7.75C7.88807 10.5 8 10.3881 8 10.25V8.65527C8 8.52684 7.90221 8.41903 7.77441 8.40625L6.25 8.25391L6.12109 8.22949C5.82864 8.14718 5.60918 7.89301 5.57812 7.58203C5.52911 7.09125 5.5 6.56244 5.5 6C5.5 5.43757 5.5291 4.90875 5.57812 4.41797C5.60919 4.10699 5.82865 3.85282 6.12109 3.77051L6.25 3.74609L7.77441 3.59375C7.90222 3.58097 8 3.47316 8 3.34473V1.75C8 1.61193 7.88807 1.5 7.75 1.5H6.04199Z"
    fill="currentColor"
  />
</svg>

<svg xmlns="http://www.w3.org/2000/svg" width="12" height="12" fill="none" data-fui-icon="true" viewBox="0 0 12 12"><path fill="currentColor" d="M7.75 0C8.716 0 9.5.784 9.5 1.75v1.595c0 .899-.682 1.651-1.576 1.74l-.9.09a15 15 0 0 0 0 1.648l.9.091A1.75 1.75 0 0 1 9.5 8.655v1.595A1.75 1.75 0 0 1 7.75 12H6.042c-.469 0-1.072-.126-1.505-.614C3.88 10.644 3 9.066 3 6S3.88 1.356 4.537.614C4.97.126 5.573 0 6.042 0zM6.042 1.5c-.24 0-.344.066-.382.108C5.284 2.032 4.5 3.238 4.5 6s.784 3.968 1.16 4.392c.038.042.142.108.382.108H7.75a.25.25 0 0 0 .25-.25V8.655a.25.25 0 0 0-.226-.249L6.25 8.254l-.129-.025a.75.75 0 0 1-.543-.647 16 16 0 0 1 0-3.164.75.75 0 0 1 .543-.647l.129-.025 1.524-.152A.25.25 0 0 0 8 3.344V1.75a.25.25 0 0 0-.25-.25z"/></svg>
